app/assets/svg/video__svg.svg

<svg width="60" height="60" viewBox="0 0 60 60" fill="none" xmlns="http://www.w3.org/2000/svg">
<rect width="60" height="60" rx="30" fill="#FAC663"/>
<path d="M48.131 27.4446C48.1187 27.1766 47.9609 26.6796 47.043 26.3634L22.5718 17.9405C21.3174 17.5084 19.9253 18.1227 19.4687 19.3102L18.8062 21.033L17.3158 24.9093C16.8592 26.0969 17.5083 27.4145 18.7629 27.8468L25.895 30.3012C25.7595 31.0815 25.9856 31.8525 26.4776 32.4424L24.9583 36.3935C24.8884 36.5754 24.7039 36.6976 24.4993 36.6976H20.0481V35.3225C20.0481 34.5644 19.3965 33.9475 18.5955 33.9475H17.6271C17.3597 33.9475 17.1429 34.1527 17.1429 34.4058V41.7394C17.1429 41.9926 17.3597 42.1978 17.6271 42.1978H18.5955C19.3965 42.1978 20.0481 41.5809 20.0481 40.8227V39.4477H24.4993C25.9209 39.4477 27.2025 38.5981 27.6883 37.3338L29.1757 33.4656C30.0269 33.3525 30.8004 32.8821 31.2595 32.1474L39.5941 35.0156C39.8665 35.1095 40.1453 35.154 40.4197 35.154C41.252 35.1539 42.0428 34.7444 42.4857 34.0608L43.4421 34.3903C43.5501 34.4275 43.6621 34.4461 43.7738 34.4461C43.9132 34.4461 44.0521 34.4172 44.1821 34.3598C44.4164 34.2564 44.5941 34.0727 44.6825 33.8429L46.0078 30.396C46.169 29.9767 45.9851 29.5173 45.5945 29.2966L47.1467 28.6115C48.032 28.2207 48.1434 27.7127 48.131 27.4446ZM19.0797 40.8227C19.0797 41.0755 18.8625 41.2811 18.5955 41.2811H18.1113V34.8642H18.5955C18.8625 34.8642 19.0797 35.0698 19.0797 35.3225V40.8227ZM26.7783 37.0203C26.4311 37.9239 25.5152 38.531 24.4993 38.531H20.0481V37.6143H24.4993C25.1095 37.6143 25.6596 37.2497 25.8683 36.7071L27.2583 33.0922C27.4178 33.1829 27.5887 33.2608 27.7701 33.3233C27.8989 33.3677 28.0289 33.4028 28.159 33.4294L26.7783 37.0203ZM28.8306 32.5735C28.8194 32.5734 28.8082 32.5734 28.7971 32.574C28.5665 32.577 28.3312 32.5411 28.1013 32.4619C27.8321 32.3691 27.5974 32.2264 27.4051 32.0486C27.3875 32.0283 27.368 32.0095 27.3466 31.9923C26.986 31.6287 26.7929 31.1351 26.8295 30.6228L30.3253 31.8258C29.9716 32.2857 29.4179 32.5563 28.8306 32.5735ZM45.098 30.0824L43.7735 33.529L42.8628 33.2152L44.1191 29.9479L44.3763 29.8344L45.098 30.0824ZM46.7376 27.7807L44.1491 28.9232L44.1483 28.9236L43.5284 29.1972L43.5277 29.1975L42.801 29.5183C41.948 29.8948 40.4802 29.9554 39.5956 29.6506L21.0396 23.2658C20.7883 23.1794 21.4203 23.6153 21.329 23.8532C21.2377 24.0911 20.4571 24.0407 20.7084 24.1272L39.2647 30.5122C39.752 30.6801 40.3528 30.7618 40.9658 30.7618C41.636 30.7618 42.3203 30.6636 42.8866 30.4733L41.7873 33.3323C41.5134 34.0448 40.6781 34.4135 39.9253 34.1541L19.094 26.9853C18.3413 26.726 17.9518 25.9354 18.2258 25.2229L19.0543 23.0682C19.3306 23.4703 19.7415 23.7941 20.2533 23.9704L20.7084 24.1272C20.9595 24.2138 21.2375 24.0911 21.329 23.8532C21.4204 23.6154 21.2909 23.3523 21.0396 23.2658L20.5845 23.109C19.8319 22.8497 19.4424 22.0593 19.7162 21.3468L19.8819 20.9158L20.3787 19.6237C20.6527 18.9112 21.4879 18.5424 22.2407 18.8019L46.7119 27.2249C47.0228 27.332 47.1378 27.4436 47.1612 27.4847C47.1417 27.5277 47.0374 27.6483 46.7376 27.7807Z" fill="#FFFDFB"/>
<path d="M44.1491 28.9232L46.7376 27.7807C47.0374 27.6483 47.1417 27.5277 47.1612 27.4847C47.1378 27.4436 47.0228 27.332 46.7119 27.2249L22.2407 18.8019C21.4879 18.5424 20.6527 18.9112 20.3787 19.6237L19.8819 20.9158L19.7162 21.3468C19.4424 22.0593 19.8319 22.8497 20.5845 23.109L21.0396 23.2658L39.5956 29.6506C40.4802 29.9554 41.948 29.8948 42.801 29.5183L43.5277 29.1975L43.5284 29.1972L44.1483 28.9236L44.1491 28.9232Z" fill="#FFFDFB"/>
</svg>

<svg width="60" height="60" fill="none" xmlns="http://www.w3.org/2000/svg"><rect width="60" height="60" rx="30" fill="#FAC663"/><path d="M48.131 27.445c-.012-.268-.17-.765-1.088-1.082l-24.471-8.422c-1.255-.433-2.647.182-3.103 1.37l-.663 1.722-1.49 3.876c-.457 1.188.192 2.506 1.447 2.938l7.132 2.454c-.136.78.09 1.552.583 2.141l-1.52 3.952a.49.49 0 0 1-.459.304h-4.45v-1.376c0-.758-.652-1.375-1.453-1.375h-.969a.472.472 0 0 0-.484.459v7.333c0 .254.217.459.484.459h.969c.8 0 1.452-.617 1.452-1.375v-1.375H24.5c1.422 0 2.704-.85 3.19-2.114l1.487-3.868a2.895 2.895 0 0 0 2.084-1.319l8.334 2.869c.273.093.551.138.826.138.832 0 1.623-.41 2.066-1.093l.956.33a1.018 1.018 0 0 0 .74-.031.931.931 0 0 0 .5-.517l1.326-3.447a.894.894 0 0 0-.414-1.1l1.553-.684c.885-.391.996-.9.984-1.167ZM19.08 40.823a.472.472 0 0 1-.484.458h-.485v-6.417h.485c.267 0 .484.206.484.459v5.5Zm7.698-3.803c-.347.904-1.263 1.511-2.279 1.511h-4.45v-.917h4.45c.61 0 1.16-.364 1.37-.907l1.39-3.615a3.034 3.034 0 0 0 .9.337l-1.38 3.591Zm2.053-4.447-.034.001a2.052 2.052 0 0 1-.696-.112 1.965 1.965 0 0 1-.754-.47 1.764 1.764 0 0 1-.518-1.37l3.496 1.204c-.353.46-.907.73-1.494.748Zm16.267-2.49-1.325 3.446-.91-.314 1.256-3.267.257-.114.722.248Zm1.64-2.302-2.589 1.142-.62.274h-.001l-.727.321c-.853.377-2.32.437-3.205.133L21.04 23.266c-.252-.087.38.35.289.587-.091.238-.872.188-.62.274l18.556 6.385c.487.168 1.088.25 1.7.25.671 0 1.355-.098 1.922-.289l-1.1 2.86c-.274.712-1.109 1.08-1.862.821l-20.831-7.169c-.753-.259-1.142-1.05-.868-1.762l.828-2.155a2.39 2.39 0 0 0 1.2.902l.454.157a.492.492 0 0 0 .621-.274.452.452 0 0 0-.29-.587l-.455-.157c-.752-.26-1.142-1.05-.868-1.762l.166-.431.497-1.292c.274-.713 1.109-1.082 1.862-.822l24.47 8.423c.312.107.427.219.45.26-.02.043-.124.163-.423.296Z" fill="#FFFDFB"/><path d="m44.15 28.923 2.588-1.142c.3-.133.404-.253.423-.296-.023-.041-.138-.153-.45-.26l-24.47-8.423c-.753-.26-1.588.11-1.862.822l-.497 1.292-.166.43c-.274.713.116 1.504.868 1.763l.456.157 18.556 6.385c.884.304 2.352.244 3.205-.133l.727-.32.62-.274h.001Z" fill="#FFFDFB"/></svg>
